X: 32
T:Missa Pange lingua / Sanctus
N: Derived from Jos0403d-Missa_Pange_lingua-Sanctus.krn
C: Josquin des Prez
%%abc-version 2.0
%%abcx-abcm2ps-target-version 5.9.1 (29 Sep 2008)
%%abc-creator hum2abc beta
%%abcx-conversion-date 2019/02/12 16:15:39
%%abc-edited-by Jesse Rodin
%%abc-edited-by Will Watson 01/09/2011; Victoria Chang 04/09/2011
%%abcx-initial-encoding-date 2011/04/09/
%%humdrum-veritas 1020178963
%%humdrum-veritas-data 3946029516
%%linebreak <none>
%%barnumbers 0
L: 1/4
M: 3/1
Q: 1/2=120
%%staves [1 2 3 4]
V: 1 clef=treble
V: 2 clef=treble-8
V: 3 clef=treble-8
V: 4 clef=bass
K: C
[V:1] E8E4 | 
[V:2] z12 | 
[V:3] z12 | 
[V:4] z12 | 
[V:1] F4E8 | 
[V:2] A8A4 | 
[V:3] z12 | 
[V:4] z12 | 
[V:1] D2G2A2c4BA | 
[V:2] B4A8 | 
[V:3] z12 | 
[V:4] z12 | 
[V:1] B2c3BAGA2B2 | 
[V:2] G2c2d2f4ed | 
[V:3] z12 | 
[V:4] z12 | 
[V:1] c2d3cc4B2 | 
[V:2] e2f3edcd4 | 
[V:3] z12 | 
[V:4] z12 | 
[V:1] c6B2A2G2 | 
[V:2] c3BA2G2c2B2 | 
[V:3] z12 | 
[V:4] z12 | 
[V:1] c2B3AA4^G2 | 
[V:2] e3de2c2B4 | 
[V:3] E8E4 | 
[V:4] z12 | 
[V:1] A12 | 
[V:2] A12 | 
[V:3] F4E8 | 
[V:4] A,,8A,,4 | 
[V:1] z12 | 
[V:2] z12 | 
[V:3] D2G2A2c4BA | 
[V:4] B,,4A,,8 | 
[V:1] z12 | 
[V:2] z12 | 
[V:3] B2c3BAGA2B2 | 
[V:4] G,,2C,2D,2F,4E,D, | 
[V:1] z12 | 
[V:2] z12 | 
[V:3] c2d3cc4B2 | 
[V:4] E,2F,3E,D,C,D,4 | 
[V:1] G6G2G4 | 
[V:2] e6e2e4 | 
[V:3] c4z4c4- | 
[V:4] C,8z4 | 
[V:1] A8A4 | 
[V:2] f8f4 | 
[V:3] c2c2c4d4 | 
[V:4] F,6F,2F,4 | 
[V:1] A2c3BA4G2 | 
[V:2] f8d3e | 
[V:3] c2A2c2d2B4 | 
[V:4] F,8G,4 | 
[V:1] A4z4z4 | 
[V:2] f6d2e2g2 | 
[V:3] A6B2c4 | 
[V:4] F,2D,2F,2G,2E,4 | 
[V:1] A4F2G2A4 | 
[V:2] f6edc2d2 | 
[V:3] d3Bd2B2A4 | 
[V:4] D,6E,2F,4 | 
[V:1] D4z2G2F3E/D/ | 
[V:2] B2G2B2c2d4 | 
[V:3] G4z2G2A3B | 
[V:4] G,3F,G,2E,2D,4 | 
[V:1] E4z2E2F4 | 
[V:2] G4z2G2A4 | 
[V:3] c12- | 
[V:4] C,4z2C,2F,3E, | 
[V:1] E12- | 
[V:2] G4z2G2A4 | 
[V:3] c12- | 
[V:4] C,12- | 
[V:1] E12 ||  
[V:2] G12 ||  
[V:3] c12 ||  
[V:4] C,12 ||  
[V:1]  [K:C] [K:clef=treble][M:2/1]z8 | 
[V:2]  [K:C] [K:clef=treble-8][M:2/1]E3FG2A2 | 
[V:3]  [K:C] [K:clef=treble-8][M:2/1]z8 | 
[V:4]  [K:C] [K:clef=bass][M:2/1]z8 | 
[V:1] z8 | 
[V:2] E2A2G2c2- | 
[V:3] z8 | 
[V:4] z8 | 
[V:1] E3FG2A2 | 
[V:2] c2BAB2A2 | 
[V:3] z8 | 
[V:4] z8 | 
[V:1] E2A2G2c2- | 
[V:2] c3de4- | 
[V:3] z8 | 
[V:4] z8 | 
[V:1] c2BAc2B2- | 
[V:2] e8- | 
[V:3] z8 | 
[V:4] z8 | 
[V:1] BAc2B2c2- | 
[V:2] e4e4- | 
[V:3] z8 | 
[V:4] z8 | 
[V:1] c2BAG4 | 
[V:2] e2d2e4 | 
[V:3] z8 | 
[V:4] z8 | 
[V:1] A4D4 | 
[V:2] f6ed | 
[V:3] z8 | 
[V:4] z8 | 
[V:1] z2A2B2c2- | 
[V:2] f4e4 | 
[V:3] z8 | 
[V:4] z8 | 
[V:1] c2BAd4 | 
[V:2] f6ed | 
[V:3] z8 | 
[V:4] z8 | 
[V:1] c6B2 | 
[V:2] f2e2f2g2 | 
[V:3] z8 | 
[V:4] z8 | 
[V:1] c2d3cBA | 
[V:2] e2f2d2e2- | 
[V:3] z8 | 
[V:4] z8 | 
[V:1] G3AB2c2 | 
[V:2] e2e3de2 | 
[V:3] z8 | 
[V:4] z8 | 
[V:1] A2B4E2- | 
[V:2] f2d2e4 | 
[V:3] z8 | 
[V:4] z8 | 
[V:1] E2B3AB2 | 
[V:2] E4e3d | 
[V:3] z8 | 
[V:4] z8 | 
[V:1] c2A2B4 | 
[V:2] e2f2d2e2- | 
[V:3] z8 | 
[V:4] z8 | 
[V:1] E4G4- | 
[V:2] e2E4e2- | 
[V:3] z8 | 
[V:4] z8 | 
[V:1] G2A2B4 | 
[V:2] e2f2d2e2- | 
[V:3] z8 | 
[V:4] z8 | 
[V:1] c2d3cBA | 
[V:2] e2f2d2e2- | 
[V:3] z8 | 
[V:4] z8 | 
[V:1] G3AB2E2 | 
[V:2] e2E4e2- | 
[V:3] z8 | 
[V:4] z8 | 
[V:1] G2A2B2c2- | 
[V:2] e2f2d2e2- | 
[V:3] z8 | 
[V:4] z8 | 
[V:1] cBA4^G2 | 
[V:2] e2c2B4 | 
[V:3] z8 | 
[V:4] z8 | 
[V:1] A4z2E2 | 
[V:2] A8- | 
[V:3] z8 | 
[V:4] z8 | 
[V:1] F2E2A4 | 
[V:2] A8 | 
[V:3] z8 | 
[V:4] z8 | 
[V:1] G6FE | 
[V:2] z4e4 | 
[V:3] z8 | 
[V:4] z8 | 
[V:1] D2C2F4 | 
[V:2] f2e2a4 | 
[V:3] z8 | 
[V:4] z8 | 
[V:1] E4G4 | 
[V:2] g6fe | 
[V:3] z8 | 
[V:4] z8 | 
[V:1] F2E4D2 | 
[V:2] d2c2f4 | 
[V:3] z8 | 
[V:4] z8 | 
[V:1] E2CDEFG2 | 
[V:2] e2A2c3B | 
[V:3] z8 | 
[V:4] z8 | 
[V:1] F2E4D2 | 
[V:2] A2G2F4 | 
[V:3] z8 | 
[V:4] z8 | 
[V:1] E4z2E2 | 
[V:2] E8 | 
[V:3] z8 | 
[V:4] z8 | 
[V:1] E2G3FED | 
[V:2] z2e2e2g2- | 
[V:3] z8 | 
[V:4] z8 | 
[V:1] E2C2G4 | 
[V:2] gfede2c2 | 
[V:3] z8 | 
[V:4] z8 | 
[V:1] z2E2E2G2- | 
[V:2] g4z2e2 | 
[V:3] z8 | 
[V:4] z8 | 
[V:1] GFEDE2C2 | 
[V:2] e2g3fed | 
[V:3] z8 | 
[V:4] z8 | 
[V:1] G6A2 | 
[V:2] e2c2g4- | 
[V:3] z8 | 
[V:4] z8 | 
[V:1] B2c2d2B2 | 
[V:2] g2e2f2g2 | 
[V:3] z8 | 
[V:4] z8 | 
[V:1] c2d3GG2- | 
[V:2] e2f2g3c | 
[V:3] z8 | 
[V:4] z8 | 
[V:1] G2c2A2B2- | 
[V:2] c4f2d2 | 
[V:3] z8 | 
[V:4] z8 | 
[V:1] BGG4c2 | 
[V:2] e3cc4 | 
[V:3] z8 | 
[V:4] z8 | 
[V:1] A2B3GG2- | 
[V:2] f2d2e3c | 
[V:3] z8 | 
[V:4] z8 | 
[V:1] G2A2F2G2- | 
[V:2] c2f2d2e2- | 
[V:3] z8 | 
[V:4] z8 | 
[V:1] GFE2D4 | 
[V:2] edc4B2 | 
[V:3] z8 | 
[V:4] z8 | 
[V:1] z2G2A2G2 | 
[V:2] c8 | 
[V:3] z8 | 
[V:4] z8 | 
[V:1] c4B2c2- | 
[V:2] z2c2d2c2 | 
[V:3] z8 | 
[V:4] z8 | 
[V:1] cBA2G2A2- | 
[V:2] f4e2f2- | 
[V:3] z8 | 
[V:4] z8 | 
[V:1] AGF2E2F2 | 
[V:2] fed2c2d2- | 
[V:3] z8 | 
[V:4] z8 | 
[V:1] D2d2c2d2- | 
[V:2] dcB2A2B2 | 
[V:3] z8 | 
[V:4] z8 | 
[V:1] dcB2A2B2 | 
[V:2] G2g2f2g2- | 
[V:3] z8 | 
[V:4] z8 | 
[V:1] G2c2B2c2- | 
[V:2] gfe2d2e2 | 
[V:3] z8 | 
[V:4] z8 | 
[V:1] cBA2G2A2- | 
[V:2] c2f2e2f2- | 
[V:3] z8 | 
[V:4] z8 | 
[V:1] AGF2E4 | 
[V:2] fed4^c2 | 
[V:3] z8 | 
[V:4] z8 | 
[V:1] (3:2:6D3EF2G2A2F2 | 
[V:2] d4z4 | 
[V:3] z8 | 
[V:4] z8 | 
[V:1] G4z4 | 
[V:2] (3:2:6G3AB2c2d2B2 | 
[V:3] z8 | 
[V:4] z8 | 
[V:1] (3:2:6G3AB2c2d2B2 | 
[V:2] c4z4 | 
[V:3] z8 | 
[V:4] z8 | 
[V:1] c4z4 | 
[V:2] (3:2:6c3de2f2g2e2 | 
[V:3] z8 | 
[V:4] z8 | 
[V:1] (3:2:6A3Bc2d2e2c2 | 
[V:2] f6e2 | 
[V:3] z8 | 
[V:4] z8 | 
[V:1] d3cA2c2 | 
[V:2] f2d2f2e2- | 
[V:3] z8 | 
[V:4] z8 | 
[V:1] B2A4G2 | 
[V:2] e2c2d2e2 | 
[V:3] z8 | 
[V:4] z8 | 
[V:1] d3cA2c2 | 
[V:2] f2d2f3e | 
[V:3] z8 | 
[V:4] z8 | 
[V:1] B2A4G2 | 
[V:2] d2c2B4 | 
[V:3] z8 | 
[V:4] z8 | 
[V:1] A3GE2G2 | 
[V:2] A4z2E2 | 
[V:3] z8 | 
[V:4] z8 | 
[V:1] F2E4D2 | 
[V:2] F2G2A2B2 | 
[V:3] z8 | 
[V:4] z8 | 
[V:1] A3GE2G2 | 
[V:2] c2d2e2E2 | 
[V:3] z8 | 
[V:4] z8 | 
[V:1] F2E4D2 | 
[V:2] F2G2A2B2 | 
[V:3] z8 | 
[V:4] z8 | 
[V:1] E2F2G2A2 | 
[V:2] c2d2e2f2- | 
[V:3] z8 | 
[V:4] z8 | 
[V:1] B2c4BA | 
[V:2] fee4d2 | 
[V:3] z8 | 
[V:4] z8 | 
[V:1] G4C4 | 
[V:2] e8 | 
[V:3] z8 | 
[V:4] z8 | 
[V:1] G8- | 
[V:2] z2e3dB2 | 
[V:3] z8 | 
[V:4] z8 | 
[V:1] G8- | 
[V:2] c2B2e4 | 
[V:3] z8 | 
[V:4] z8 | 
[V:1] G8 ||  
[V:2] E8 ||  
[V:3] z8 ||  
[V:4] z8 ||  
[V:1]  [K:C] [K:clef=treble][M:2/1]z8 | 
[V:2]  [K:C] [K:clef=treble-8][M:2/1]z8 | 
[V:3]  [K:C] [K:clef=treble-8][M:2/1]B3AB2c2- | 
[V:4]  [K:C] [K:clef=bass][M:2/1]E,3F,G,2A,2 | 
[V:1] z8 | 
[V:2] z8 | 
[V:3] cBcAB2c2- | 
[V:4] E,3F,G,2A,2 | 
[V:1] z8 | 
[V:2] z8 | 
[V:3] cBcAB4 | 
[V:4] E,2A,4^G,2 | 
[V:1] E3DE2F2- | 
[V:2] A3Bc2d2 | 
[V:3] A4z4 | 
[V:4] A,4z4 | 
[V:1] FEFDE2F2- | 
[V:2] A3Bc2d2 | 
[V:3] z8 | 
[V:4] z8 | 
[V:1] FEFDE4 | 
[V:2] A2d4^c2 | 
[V:3] z8 | 
[V:4] z8 | 
[V:1] D8 | 
[V:2] d8- | 
[V:3] A3GA2B2- | 
[V:4] D,3E,F,2G,2 | 
[V:1] z8 | 
[V:2] d8 | 
[V:3] BABGA2B2- | 
[V:4] D,3E,F,2G,2 | 
[V:1] z8 | 
[V:2] z8 | 
[V:3] BABGA4 | 
[V:4] D,2G,4^F,2 | 
[V:1] G3AB2c2 | 
[V:2] z4g4 | 
[V:3] GABcd2e2- | 
[V:4] G,6C,2 | 
[V:1] G3AB2c2 | 
[V:2] e3fg4 | 
[V:3] edecd2e2- | 
[V:4] CB,CA,G,2C2- | 
[V:1] G2c4B2 | 
[V:2] e3fg4 | 
[V:3] edecd4 | 
[V:4] CB,CA,G,4 | 
[V:1] [M:3/1]c8z4 | 
[V:2] [M:3/1]e12 | 
[V:3] [M:3/1]c8z4 | 
[V:4] [M:3/1]C,4C6B,2 | 
[V:1] c6A2B4 | 
[V:2] z12 | 
[V:3] z12 | 
[V:4] A,6F,2G,4 | 
[V:1] A4d4c4 | 
[V:2] f6d2e4 | 
[V:3] z12 | 
[V:4] F,4D,4A,4 | 
[V:1] d6B2c4 | 
[V:2] d4g4f4 | 
[V:3] z12 | 
[V:4] B,4G,4A,4 | 
[V:1] B4G4A4 | 
[V:2] g6e2f4 | 
[V:3] z12 | 
[V:4] G,4z4z4 | 
[V:1] G4z4z4 | 
[V:2] e4c4d4 | 
[V:3] c6A2B4 | 
[V:4] z12 | 
[V:1] z12 | 
[V:2] c4F4G4 | 
[V:3] A4d4c4 | 
[V:4] F,6D,2E,4 | 
[V:1] z12 | 
[V:2] A4G4A4 | 
[V:3] d6B2c4 | 
[V:4] D,4G,4F,4 | 
[V:1] z12 | 
[V:2] B4c4A4 | 
[V:3] B4e4d4 | 
[V:4] G,4E,4F,4 | 
[V:1] G6E2F4 | 
[V:2] B4e4d4 | 
[V:3] e4z4z4 | 
[V:4] E,4C,4D,4 | 
[V:1] E4A4G4 | 
[V:2] e12 | 
[V:3] c6A2B4 | 
[V:4] A,,8E,4 | 
[V:1] A8z4 | 
[V:2] z12 | 
[V:3] A4d4c4 | 
[V:4] F,6D,2E,4 | 
[V:1] z12 | 
[V:2] d6B2c4 | 
[V:3] d4z4z4 | 
[V:4] D,4G,4F,4 | 
[V:1] z12 | 
[V:2] B4G4A4 | 
[V:3] z12 | 
[V:4] G,6E,2F,4 | 
[V:1] G6E2F4 | 
[V:2] G4c4B4 | 
[V:3] z12 | 
[V:4] E,4C,4D,4 | 
[V:1] E4A4G4 | 
[V:2] c4z4z4 | 
[V:3] c6A2B4 | 
[V:4] C,4F,4E,4 | 
[V:1] A4F4G4 | 
[V:2] z12 | 
[V:3] A4d4c4 | 
[V:4] F,4D,4E,4 | 
[V:1] F4D4E4 | 
[V:2] d6B2c4 | 
[V:3] d8z4 | 
[V:4] D,4G,4C,4 | 
[V:1] D4G4F4 | 
[V:2] B4e4d4 | 
[V:3] z12 | 
[V:4] G,4E,4F,4 | 
[V:1] G4E4F4 | 
[V:2] e8z4 | 
[V:3] e6c2d4 | 
[V:4] E,4A,4D,4 | 
[V:1] E4A4G4 | 
[V:2] z12 | 
[V:3] c4A4B4 | 
[V:4] A,4F,4G,4 | 
[V:1] A4F4G4 | 
[V:2] z4z4e4 | 
[V:3] A4d4c4 | 
[V:4] F,4D,4E,4 | 
[V:1] F4A6B2 | 
[V:2] f4d4f4 | 
[V:3] d4f6e2 | 
[V:4] D,8z4 | 
[V:1] c4F6G2 | 
[V:2] e4f4d4 | 
[V:3] c4d6c2 | 
[V:4] A,,4D,6E,2 | 
[V:1] A6F2G4 | 
[V:2] c4d4B4 | 
[V:3] A4B8 | 
[V:4] F,4D,4E,4 | 
[V:1] A4c6B2 | 
[V:2] c6d2e4 | 
[V:3] A4z4A4 | 
[V:4] A,,4A,6G,2 | 
[V:1] G4A6G2 | 
[V:2] e4c4d4 | 
[V:3] B4A6B2 | 
[V:4] E,4F,6E,2 | 
[V:1] E4F8 | 
[V:2] e4A4d4 | 
[V:3] c4F6G2 | 
[V:4] C,4D,8 | 
[V:1] E4z4G4 | 
[V:2] c4e8 | 
[V:3] A4c4B4 | 
[V:4] A,,8E,4 | 
[V:1] A4c6B2 | 
[V:2] c6d2e4 | 
[V:3] A8A4 | 
[V:4] F,4A,6G,2 | 
[V:1] G4A6G2 | 
[V:2] e4c4d4 | 
[V:3] B4A6B2 | 
[V:4] E,4F,6E,2 | 
[V:1] E4F8 | 
[V:2] e4A4d4 | 
[V:3] c4F6G2 | 
[V:4] C,4D,8 | 
[V:1] E12- | 
[V:2] c4e6d2 | 
[V:3] A4E6F2 | 
[V:4] A,,4C,6B,,2 | 
[V:1] E12- | 
[V:2] B4c8 | 
[V:3] G4C6D2 | 
[V:4] G,,4A,,8 | 
[V:1] E12 ||  
[V:2] B12 ||  
[V:3] E12 ||  
[V:4] E,12 ||  
[V:1]  [K:C] [K:clef=treble][M:2/1]z8 | 
[V:2]  [K:C] [K:clef=treble-8][M:2/1]z8 | 
[V:3]  [K:C] [K:clef=treble-8][M:2/1]z8 | 
[V:4]  [K:C] [K:clef=bass][M:2/1]A,,2B,,2A,,2D,2- | 
[V:1] z8 | 
[V:2] z8 | 
[V:3] z8 | 
[V:4] D,2C,B,,A,,4 | 
[V:1] z8 | 
[V:2] z8 | 
[V:3] E2F2E2A2- | 
[V:4] z8 | 
[V:1] z8 | 
[V:2] z8 | 
[V:3] A2GFE4 | 
[V:4] z8 | 
[V:1] z8 | 
[V:2] z8 | 
[V:3] z8 | 
[V:4] D,2E,2D,2G,2- | 
[V:1] z8 | 
[V:2] z8 | 
[V:3] z8 | 
[V:4] G,2F,E,D,4 | 
[V:1] z8 | 
[V:2] z8 | 
[V:3] A2B2A2d2- | 
[V:4] z8 | 
[V:1] z8 | 
[V:2] z8 | 
[V:3] d2cBA4 | 
[V:4] z8 | 
[V:1] z8 | 
[V:2] z8 | 
[V:3] z8 | 
[V:4] E,2F,2E,2A,2- | 
[V:1] z8 | 
[V:2] z8 | 
[V:3] z8 | 
[V:4] A,2G,F,E,4 | 
[V:1] z8 | 
[V:2] z8 | 
[V:3] B2c2B2e2- | 
[V:4] z4E,4- | 
[V:1] z8 | 
[V:2] z8 | 
[V:3] e2dcB4 | 
[V:4] E,2F,2G,4 | 
[V:1] z8 | 
[V:2] z8 | 
[V:3] z4B4- | 
[V:4] A,4E,3F, | 
[V:1] z8 | 
[V:2] z8 | 
[V:3] B2c2d4 | 
[V:4] G,2A,2F,4 | 
[V:1] z8 | 
[V:2] z8 | 
[V:3] e4B3c | 
[V:4] E,4z4 | 
[V:1] z8 | 
[V:2] z8 | 
[V:3] d2e2c4 | 
[V:4] z2C,3D,E,F, | 
[V:1] z8 | 
[V:2] z8 | 
[V:3] B2G3ABc | 
[V:4] G,2E,2G,3F, | 
[V:1] z8 | 
[V:2] z8 | 
[V:3] d2B2A2d2 | 
[V:4] D,2G,2F,2D,2 | 
[V:1] z8 | 
[V:2] z8 | 
[V:3] c2A2c3B | 
[V:4] F,3E,C,2E,2- | 
[V:1] z8 | 
[V:2] z8 | 
[V:3] G2A4^G2 | 
[V:4] E,D,C,2B,,4 | 
[V:1] z8 | 
[V:2] z8 | 
[V:3] A8- | 
[V:4] A,,8 | 
[V:1] z8 | 
[V:2] z8 | 
[V:3] A8 | 
[V:4] z2D,2D,2D,2 | 
[V:1] z8 | 
[V:2] z8 | 
[V:3] z2A2A2A2 | 
[V:4] F,6E,D, | 
[V:1] z8 | 
[V:2] z8 | 
[V:3] c6BA | 
[V:4] E,2A,,2A,4 | 
[V:1] z8 | 
[V:2] z8 | 
[V:3] B2E2e4 | 
[V:4] G,6F,E, | 
[V:1] z8 | 
[V:2] z8 | 
[V:3] d6cB | 
[V:4] F,2G,2D,4 | 
[V:1] z8 | 
[V:2] z8 | 
[V:3] c2A2B2c2- | 
[V:4] A,3F,G,2A,2 | 
[V:1] z8 | 
[V:2] z8 | 
[V:3] c2BAG2A2 | 
[V:4] E,4z2A,,2 | 
[V:1] z8 | 
[V:2] z8 | 
[V:3] E4z2E2 | 
[V:4] A,,2A,,2C,4- | 
[V:1] z8 | 
[V:2] z8 | 
[V:3] E2E2G4- | 
[V:4] C,2B,,A,,B,,2C,2 | 
[V:1] z8 | 
[V:2] z8 | 
[V:3] G2FEF2G2 | 
[V:4] G,,A,,B,,C,D,2E,2 | 
[V:1] z8 | 
[V:2] z8 | 
[V:3] D3FE4 | 
[V:4] F,2D,4^C,2 | 
[V:1] z8 | 
[V:2] z8 | 
[V:3] D8 | 
[V:4] D,4z2D,2 | 
[V:1] z8 | 
[V:2] z8 | 
[V:3] z4z2A2 | 
[V:4] D,2D,2F,4- | 
[V:1] z8 | 
[V:2] z8 | 
[V:3] A2A2c4- | 
[V:4] F,2E,D,E,2F,2 | 
[V:1] z8 | 
[V:2] z8 | 
[V:3] c2BAB2c2 | 
[V:4] C,D,E,F,G,2A,2 | 
[V:1] z8 | 
[V:2] z8 | 
[V:3] G3BA4 | 
[V:4] B,2G,4^F,2 | 
[V:1] z8 | 
[V:2] z8 | 
[V:3] G8- | 
[V:4] G,4z2E,2 | 
[V:1] z8 | 
[V:2] z8 | 
[V:3] G4z2B2 | 
[V:4] E,2E,2G,4- | 
[V:1] z8 | 
[V:2] z8 | 
[V:3] B2B2d4- | 
[V:4] G,2F,E,F,2G,2 | 
[V:1] z8 | 
[V:2] z8 | 
[V:3] d2cBc2d2 | 
[V:4] D,E,F,G,A,2B,2 | 
[V:1] z8 | 
[V:2] z8 | 
[V:3] A3cB4 | 
[V:4] C2A,4^G,2 | 
[V:1] z8 | 
[V:2] z8 | 
[V:3] A8- | 
[V:4] A,4z2A,,2 | 
[V:1] z8 | 
[V:2] z8 | 
[V:3] A4z2E2 | 
[V:4] A,,2A,,2C,4- | 
[V:1] z8 | 
[V:2] z8 | 
[V:3] E2E2G4- | 
[V:4] C,2B,,A,,B,,2C,2 | 
[V:1] z8 | 
[V:2] z8 | 
[V:3] G2FEF2G2 | 
[V:4] G,,A,,B,,C,D,2E,2 | 
[V:1] z8 | 
[V:2] z8 | 
[V:3] D3FE4 | 
[V:4] F,2D,4^C,2 | 
[V:1] z8 ||  
[V:2] z8 ||  
[V:3] D8 ||  
[V:4] D,8 ||  



